X: 39655
T: Templehouse, The
R: reel
M: 4/4
K: Edorian
|:EFGA BAFE|D2FD ADFD|EFGA BE E2|dBAd BEE2:|
g2ef g2eg|f2df afdf|g2ef gfed|BdAd BEE2|
g2ef g2eg|f2df afdf|e2ef gfed|BdAd BEE2||

